X:1
T:Title
%%score { ( 1 3 ) | ( 2 4 ) }
L:1/8
M:3/4
K:Bb
V:1 treble nm="Grand Piano"
V:3 treble 
V:2 bass 
V:4 bass 
V:1
 z2 z[Q:1/4=86] [B,D] [A,CE][G,_D=E] | [F,DF]3 [DB] [Dc][DB] | B2 CG AG | G3 F EG | %4
 [DF]3 D [CE][_D=E] | [DF]3 [Fd] [^Fd][FA] | [Ac]2 BB AG | [=Ec]3 [DEB] [CEA][B,EG] | %8
[M:3/8] [A,F]3 |[M:4/4] [Ge][Fd][EA][Ec]- [Ec] [DB]3 | DDDE- E4 | c=Bc[Ge]- [Ge] [Ge]3 | %12
 GAG[DF]- [DF]4 | [Fd][Ec][EA][Ec]- [Ec] [DB]3 | [DB][EB][FB]G- G4 | %15
 z2 z d- d4[Q:1/4=85][Q:1/4=83][Q:1/4=82][Q:1/4=81][Q:1/4=80][Q:1/4=78][Q:1/4=77][Q:1/4=76][Q:1/4=75][Q:1/4=73][Q:1/4=72][Q:1/4=71][Q:1/4=70][Q:1/4=68][Q:1/4=67] | %16
[M:5/8] dc[DB] [DB]2-[Q:1/4=66] | [DB]3 z2 |] %18
V:2
 z2 z B,, B,,B,, | B,,3 [B,,F,] [B,,F,][B,,F,] | [E,G,C]2 [E,G,][E,G,E] [E,G,F][E,G,E] | %3
 [F,A,E]3 [F,A,E] [F,A,C][F,A,E] | [B,,B,]3 [B,,B,] [B,,A,][B,,G,] | [B,,F,]3 [B,,B,] [D,A,][D,D] | %6
 [G,D]2 [G,DG][G,DG] [G,CD][G,B,D] | [C,B,]3 C, C,C, |[M:3/8] F,3 | %9
[M:4/4] [F,A,][F,A,][F,A,][B,,F,]- [B,,F,] [B,,F,]3 | %10
 [B,,F,B,][B,,F,B,][B,,F,B,][F,A,C]- [F,A,C]4 | [F,A,E][F,_A,D][F,=A,E][F,A,]- [F,A,] [F,A,]3 | %12
 [F,A,E][F,A,F][F,A,E][B,,B,]- [B,,B,]4 | [B,,B,][F,A,][F,A,][B,,F,]- [B,,F,] [B,,F,]3 | %14
 [B,,B,][C,B,][D,B,][E,B,E]- [E,B,E]4 | z2 z F z4 |[M:5/8] [F,B,F][F,A,E][B,,F,] [B,,F,]2- | %17
 [B,,F,]3 z2 |] %18
V:3
 x6 | x6 | x6 | x6 | x6 | x6 | x6 | x6 |[M:3/8] x3 |[M:4/4] x8 | x8 | x8 | x8 | x8 | x8 | %15
 BB .B2 B B3 |[M:5/8] x5 | x5 |] %18
V:4
 x6 | x6 | x6 | x6 | x6 | x6 | x6 | x6 |[M:3/8] x3 |[M:4/4] x8 | x8 | x8 | x8 | x8 | x8 | %15
 [G,B,D][G,CE][^F,_D=E][=F,=D]- [F,D]4 |[M:5/8] x5 | x5 |] %18

